X:1
T:Ich steh' an deiner Krippen hier
T:Johann-Sebastian Bach Bearbeitung: Rüdiger Voigt 
%%score { 1 | 2 }
L:1/8
Q:1/4=94
M:4/4
K:C
V:1 treble nm="Klavier" snm="Klav."
V:2 bass 
V:1
|:"^A" E2 |"^3\n" A3 B c2 A2 | G3 F"^3" E2 G2 | C3"^2" B, C2 D2 | E4"^1" E2 ::"^2" G2 | %6
 c2 G2 A2 G2 | F3 G E2 :| E2 | ^F2 ^G2"^1" AcBA |"^4" ^G4 [CEA]2 |:"^B" E2 | A3 B c2 A2 | %13
 G3 F E2 G2 | C3 B, C2 D2 | E4 E2 :: G2 | c2 G2 A2 G2 | F3 G E2 :| E2 | ^F2 ^G2 AcBA | %21
 ^G4 [CEA]2 |:"^C""^4" cB | c2 A2 E2 c2 |"^2" BedB"^4" c2 AB | c2 A2 E2 c2 | E^G-GB e2 ::"^4" e2 | %28
 dGBd g2 G2 | BdGB c2 :|"^3" AB | c2 Bc A2 E2 |"^4" ^G4 [CEA]2 |] %33
V:2
|: z2 |"^2" C2"^1" B,2"^2" A,2 E,2 | G,2 B,2"^2" C2 z2 |"^1" C,2"^2" B,,2 A,,2 B,,2 | %4
"^2" E,2 B,,2 E,,2 :: z2 | z C3 F,2 E,2 | G,2 G,,2 C,2 :| z2 |"^2" D,2 B,,2 E,2 A,,2 | %10
 E,2 E,,2 A,,2 |: z2 |"^3" C,2 B,,E, A,,2 z2 | G,2 G,,B,, C,2 E,D, | E,2 A,,2 E,2 A,,2 | %15
"^1" B,,2 ^G,,B,, E,,2 :: z2 | z CB,A, G,F,E,D, | G,2 G,,2 C,2 :| z2 | z"^4" B,,2 E, C,E,D,C, | %21
 E,2 E,,2 A,,2 |: z2 | C,2 B,,E, A,,2 z2 | G,2 G,,B,, C,2 E,D, | E,2 A,,2 E,2 A,,2 | %26
 B,,2 ^G,,B,, E,,2 :: z2 | z CB,A, G,F,E,D, | G,2 G,,2 C,2 :| z2 | z B,,2 E, C,E,D,C, | %32
 E,2 E,,2 A,,2 |] %33

